packages/core/src/svgs/tokens/mono/BLZ.svg

<svg width="24" height="24" viewBox="0 0 24 24" fill="none" xmlns="http://www.w3.org/2000/svg">
<path d="M12 5.27274C12.4339 5.27274 12.8502 5.10034 13.1571 4.79346C13.464 4.48658 13.6364 4.07036 13.6364 3.63637C13.6364 3.20238 13.464 2.78615 13.1571 2.47928C12.8502 2.17241 12.4339 2 12 2C11.566 2 11.1498 2.17241 10.8429 2.47928C10.536 2.78615 10.3636 3.20238 10.3636 3.63637C10.3636 4.07036 10.536 4.48658 10.8429 4.79346C11.1498 5.10034 11.566 5.27274 12 5.27274ZM12 21.9999C12.4339 21.9999 12.8502 21.8276 13.1571 21.5206C13.464 21.2138 13.6364 20.7976 13.6364 20.3636C13.6364 19.9297 13.464 19.5133 13.1571 19.2065C12.8502 18.8996 12.4339 18.7272 12 18.7272C11.566 18.7272 11.1498 18.8996 10.8429 19.2065C10.536 19.5133 10.3636 19.9297 10.3636 20.3636C10.3636 20.7976 10.536 21.2138 10.8429 21.5206C11.1498 21.8276 11.566 21.9999 12 21.9999ZM12.5845 6.1558H11.4155V8.49347H12.5845V6.1558ZM12.5845 15.5065H11.4155V17.8441H12.5845V15.5065ZM5.27274 11.9999C5.27274 11.566 5.10035 11.1497 4.79346 10.8429C4.48659 10.5361 4.07036 10.3636 3.63637 10.3636C3.20238 10.3636 2.78617 10.5361 2.47929 10.8429C2.17241 11.1497 2 11.566 2 11.9999C2 12.434 2.17241 12.8502 2.47929 13.1571C2.78617 13.4639 3.20238 13.6363 3.63637 13.6363C4.07036 13.6363 4.48659 13.4639 4.79346 13.1571C5.10035 12.8502 5.27274 12.434 5.27274 11.9999ZM20.3636 10.3636C20.7975 10.3636 21.2139 10.5361 21.5207 10.8429C21.8275 11.1497 22 11.566 22 11.9999C22 12.434 21.8275 12.8502 21.5207 13.1571C21.2139 13.4639 20.7975 13.6363 20.3636 13.6363C19.9296 13.6363 19.5134 13.4639 19.2064 13.1571C18.8996 12.8502 18.7273 12.434 18.7273 11.9999C18.7273 11.566 18.8996 11.1497 19.2064 10.8429C19.5134 10.5361 19.9296 10.3636 20.3636 10.3636ZM6.15581 12.5844V11.4156H8.49347V12.5844H6.15581ZM15.5065 12.5844V11.4156H17.8442V12.5844H15.5065ZM7.23523 4.93378C7.38718 5.08573 7.50772 5.26614 7.58997 5.46467C7.67221 5.66322 7.71453 5.87602 7.71453 6.09093C7.71453 6.30582 7.67221 6.51862 7.58997 6.71717C7.50772 6.91571 7.38718 7.09611 7.23523 7.24807C7.08326 7.40004 6.90287 7.52057 6.70432 7.60281C6.50577 7.68505 6.29298 7.72738 6.07808 7.72738C5.86317 7.72738 5.65038 7.68505 5.45183 7.60281C5.25328 7.52057 5.07289 7.40004 4.92092 7.24807C4.61403 6.94117 4.44162 6.52493 4.44162 6.09093C4.44162 5.65691 4.61403 5.24067 4.92092 4.93378C5.22782 4.62688 5.64406 4.45447 6.07808 4.45447C6.51209 4.45447 6.92833 4.62688 7.23523 4.93378ZM19.0656 19.0662C19.2176 18.9143 19.3382 18.7339 19.4204 18.5353C19.5026 18.3368 19.5449 18.1239 19.5449 17.909C19.5449 17.6941 19.5026 17.4814 19.4204 17.2828C19.3382 17.0843 19.2176 16.9039 19.0656 16.7518C18.9137 16.5999 18.7333 16.4794 18.5347 16.3971C18.3362 16.3149 18.1233 16.2726 17.9084 16.2726C17.6936 16.2726 17.4808 16.3149 17.2822 16.3971C17.0837 16.4794 16.9033 16.5999 16.7513 16.7518C16.4444 17.0588 16.272 17.475 16.272 17.909C16.272 18.3431 16.4444 18.7592 16.7513 19.0662C17.0582 19.373 17.4745 19.5455 17.9084 19.5455C18.3424 19.5455 18.7588 19.373 19.0656 19.0662ZM8.76348 7.08152L7.09087 8.76348L8.63607 10.318L10.3092 8.63607L8.76348 7.08152ZM15.337 13.6544L13.6538 15.337L15.2084 16.8916L16.881 15.2095L15.337 13.6544ZM16.7588 7.24165C16.9109 7.3936 17.0913 7.51415 17.2898 7.59639C17.4884 7.67862 17.7011 7.72094 17.916 7.72094C18.1309 7.72094 18.3438 7.67862 18.5423 7.59639C18.7409 7.51415 18.9213 7.3936 19.0732 7.24165C19.2251 7.08969 19.3457 6.90929 19.4279 6.71074C19.5101 6.5122 19.5525 6.2994 19.5525 6.08449C19.5525 5.8696 19.5101 5.6568 19.4279 5.45825C19.3457 5.25971 19.2251 5.07931 19.0732 4.92735C18.7663 4.62046 18.3501 4.44804 17.916 4.44804C17.482 4.44804 17.0658 4.62046 16.7588 4.92735C16.452 5.23425 16.2797 5.65049 16.2797 6.08449C16.2797 6.51851 16.452 6.93475 16.7588 7.24165ZM7.24165 19.0598C7.0897 19.2117 6.90929 19.3322 6.71074 19.4145C6.5122 19.4967 6.2994 19.5391 6.0845 19.5391C5.86961 19.5391 5.6568 19.4967 5.45827 19.4145C5.25972 19.3322 5.07931 19.2117 4.92736 19.0598C4.77539 18.9077 4.65486 18.7273 4.57262 18.5288C4.49038 18.3304 4.44805 18.1175 4.44805 17.9026C4.44805 17.6877 4.49038 17.475 4.57262 17.2764C4.65486 17.0779 4.77539 16.8975 4.92736 16.7454C5.23425 16.4386 5.65048 16.2661 6.0845 16.2661C6.51852 16.2661 6.93476 16.4386 7.24165 16.7454C7.54855 17.0524 7.72096 17.4685 7.72096 17.9026C7.72096 18.3366 7.54855 18.7528 7.24165 19.0598ZM10.155 13.8449C10.3973 14.0873 10.6849 14.2795 11.0015 14.4106C11.318 14.5418 11.6573 14.6093 12 14.6093C12.3427 14.6093 12.682 14.5418 12.9985 14.4106C13.3151 14.2795 13.6027 14.0873 13.845 13.8449C14.0873 13.6028 14.2795 13.315 14.4106 12.9985C14.5417 12.6819 14.6092 12.3426 14.6092 11.9999C14.6092 11.6574 14.5417 11.318 14.4106 11.0015C14.2795 10.6848 14.0873 10.3972 13.845 10.1549C13.3557 9.66565 12.692 9.39074 12 9.39074C11.308 9.39074 10.6443 9.66565 10.155 10.1549C9.66572 10.6443 9.39081 11.308 9.39081 11.9999C9.39081 12.692 9.66572 13.3557 10.155 13.8449ZM16.9272 8.76348L15.2272 7.07275L13.6726 8.6273L15.3732 10.3274L16.9272 8.76348ZM10.3542 15.3452L8.65419 13.6457L7.09964 15.2003L8.80029 16.8909L10.3542 15.3452Z" fill="white"/>
</svg>

<svg xmlns="http://www.w3.org/2000/svg" width="24" height="24" fill="none" viewBox="0 0 24 24">
    <path fill="#fff" d="M12 5.273A1.637 1.637 0 1 0 12 2a1.637 1.637 0 0 0 0 3.273M12 22a1.636 1.636 0 1 0 0-3.272A1.636 1.636 0 0 0 12 22m.585-15.844h-1.17v2.337h1.17zm0 9.35h-1.17v2.338h1.17zM5.273 12A1.636 1.636 0 1 0 2 12a1.636 1.636 0 0 0 3.273 0m15.09-1.636a1.637 1.637 0 1 1 0 3.273 1.637 1.637 0 0 1 0-3.273m-14.207 2.22v-1.168h2.337v1.168zm9.35 0v-1.168h2.338v1.168zm-8.27-7.65A1.637 1.637 0 1 1 4.92 7.248a1.637 1.637 0 0 1 2.315-2.314m11.83 14.132a1.634 1.634 0 0 0 0-2.314 1.637 1.637 0 1 0 0 2.314M8.763 7.082 7.091 8.763l1.545 1.555 1.673-1.682zm6.574 6.572-1.683 1.683 1.554 1.555 1.673-1.682zm1.422-6.412a1.64 1.64 0 0 0 2.314 0 1.637 1.637 0 1 0-2.314 0M7.242 19.06a1.638 1.638 0 0 1-2.67-.531 1.636 1.636 0 1 1 2.67.53m2.913-5.215a2.607 2.607 0 0 0 4.256-.847 2.61 2.61 0 1 0-4.256.847m6.772-5.082-1.7-1.69-1.554 1.554 1.7 1.7zm-6.573 6.582-1.7-1.7L7.1 15.2l1.7 1.69z"/>
</svg>
